lib/svgs/team-flag.svg

<?xml version="1.0" encoding="UTF-8"?>
<svg width="16px" height="16px" viewBox="0 0 16 16" version="1.1" xmlns="http://www.w3.org/2000/svg" xmlns:xlink="http://www.w3.org/1999/xlink">
    <!-- Generator: sketchtool 51.3 (57544) - http://www.bohemiancoding.com/sketch -->
    <title>team/team-flag</title>
    <desc>Created with sketchtool.</desc>
    <defs></defs>
    <g id="Icons" stroke="none" stroke-width="1" fill="none" fill-rule="evenodd">
        <g id="Web" transform="translate(-51.000000, -2394.000000)" fill="#000000">
            <g id="team/team-flag" transform="translate(51.000000, 2394.000000)">
                <path d="M1.70912437,3.2 C1.49579103,2.84444444 1.06912437,2.70222222 0.784679923,2.91555556 C0.429124368,3.12888889 0.286902146,3.55555556 0.500235479,3.91111111 L7.25579103,15.6444444 C7.39801326,15.8577778 7.61134659,16 7.89579103,16 C8.03801326,16 8.10912437,16 8.25134659,15.9288889 C8.60690215,15.7155556 8.67801326,15.2888889 8.53579103,14.9333333 L1.70912437,3.2 M15.575791,5.83111111 L12.375791,0.284444444 C12.3046799,0.142222222 12.0913466,-8.8817842e-16 11.8780133,-8.8817842e-16 C11.6646799,-8.8817842e-16 11.4513466,-8.8817842e-16 11.3091244,0.213333333 C10.3846799,1.06666667 9.31801326,1.13777778 8.25134659,1.13777778 L7.46912437,1.13777778 C6.04690215,1.13777778 4.4824577,1.28 3.27356881,3.05777778 L7.25579103,9.88444444 C7.39801326,9.81333333 7.46912437,9.74222222 7.54023548,9.6 C8.39356881,8.10666667 9.38912437,8.03555556 10.7402355,8.03555556 L11.4513466,8.03555556 C12.7313466,8.03555556 14.1535688,7.96444444 15.5046799,6.75555556 C15.7180133,6.54222222 15.7180133,6.18666667 15.575791,5.83111111" id="Shape"></path>
            </g>
        </g>
    </g>
</svg>

<svg xmlns="http://www.w3.org/2000/svg" viewBox="0 0 16 16">
    <path d="M1.71 3.2c-.214-.356-.64-.498-.925-.284-.356.213-.498.64-.285.995l6.756 11.733a.747.747 0 0 0 .64.356c.142 0 .213 0 .355-.071.356-.213.427-.64.285-.996L1.709 3.2m13.867 2.631l-3.2-5.547A.599.599 0 0 0 11.878 0c-.213 0-.427 0-.569.213-.924.854-1.991.925-3.058.925H7.47c-1.422 0-2.987.142-4.195 1.92l3.982 6.826A.555.555 0 0 0 7.54 9.6c.854-1.493 1.85-1.564 3.2-1.564h.711c1.28 0 2.703-.072 4.054-1.28.213-.214.213-.57.07-.925"/>
</svg>
